docs/.gitbook/assets/icon-raycast-logo-pos-16@light.svg

<svg width="32" height="32" viewBox="0 0 16 16" fill="none" xmlns="http://www.w3.org/2000/svg">
<rect x="0" y="0" width="16" height="16" fill="#fff"/>
<path fill-rule="evenodd" clip-rule="evenodd" d="M15 7.99953L14.2701 8.72935L11.5009 5.96034V4.49977L15 7.99953ZM8 1L7.27013 1.72982L10.0393 4.49883H11.5L8 1ZM6.43293 2.56976L5.70213 3.30051L6.90427 4.50257H8.36493L6.43293 2.56976ZM11.5 7.63649V9.09706L12.7021 10.2991L13.4329 9.56836L11.5 7.63649ZM11.0819 10.3523L11.5 9.9342H6.068V4.49977L5.64987 4.91787L4.86587 4.13392L4.1332 4.86561L4.9172 5.64956L4.49907 6.06766V6.90761L3.29693 5.70555L2.56613 6.4363L4.49907 8.36911V10.0359L1.7308 7.26971L1 8.00047L8 15L8.7308 14.2692L5.9616 11.5002H7.63507L9.568 13.433L10.2988 12.7023L9.09667 11.5002H9.93667L10.3548 11.0821L11.1388 11.8661L11.8696 11.1353L11.0819 10.3523Z" fill="#000"/>
</svg>

<svg xmlns="http://www.w3.org/2000/svg" width="32" height="32" fill="none" viewBox="0 0 16 16"><path fill="#fff" d="M0 0h16v16H0z"/><path fill="#000" fill-rule="evenodd" d="m15 8-.73.73-2.77-2.77V4.5zM8 1l-.73.73 2.77 2.769h1.46zM6.433 2.57l-.73.73 1.201 1.203h1.46zM11.5 7.636v1.461l1.202 1.202.73-.73zm-.418 2.716.418-.418H6.068V4.5l-.418.418-.784-.784-.733.732.784.784-.418.418v.84L3.297 5.706l-.73.73L4.498 8.37v1.667L1.731 7.27 1 8l7 7 .73-.73-2.768-2.77h1.673l1.933 1.933.73-.73-1.2-1.203h.84l.418-.418.784.784.73-.73z" clip-rule="evenodd"/></svg>
